public/library/bitget-wallet-token-icon-dark.svg

<svg width="256" height="256" viewBox="0 0 256 256" fill="none" xmlns="http://www.w3.org/2000/svg">
<rect width="256" height="256" rx="60" fill="white"/>
<path d="M106.519 37.6134C96.1838 37.6081 85.8668 37.6029 75.4959 37.6187C69.2249 37.6187 66.8728 45.4915 71.5367 50.1548L142.135 120.753C144.338 122.768 145.712 124.958 145.762 127.846C145.712 130.733 144.338 132.923 142.135 134.938L71.5367 205.536C66.8728 210.2 69.2249 218.072 75.4959 218.072C85.8668 218.088 96.1838 218.083 106.519 218.078C111.693 218.075 116.872 218.072 122.064 218.072C128.857 218.072 132.897 214.444 136.526 210.815L200.196 147.145C205.278 142.063 209.824 135.316 209.763 127.846C209.824 120.375 205.278 113.628 200.196 108.547L136.526 44.8765C132.897 41.2477 128.857 37.6187 122.064 37.6187C116.872 37.6187 111.693 37.6161 106.519 37.6134Z" fill="#001F29"/>
</svg>

<svg xmlns="http://www.w3.org/2000/svg" width="256" height="256" fill="none" viewBox="0 0 256 256"><rect width="256" height="256" fill="#fff" rx="60"/><path fill="#001f29" d="M106.519 37.613c-10.335-.005-20.652-.01-31.023.006-6.271 0-8.623 7.873-3.96 12.536l70.599 70.598c2.203 2.015 3.577 4.205 3.627 7.093-.05 2.887-1.424 5.077-3.627 7.092l-70.598 70.598c-4.664 4.664-2.312 12.536 3.959 12.536 10.37.016 20.688.011 31.023.006 5.174-.003 10.353-.006 15.545-.006 6.793 0 10.833-3.628 14.462-7.257l63.67-63.67c5.082-5.082 9.628-11.829 9.567-19.299.061-7.471-4.485-14.218-9.567-19.299l-63.67-63.67c-3.629-3.63-7.669-7.258-14.462-7.258-5.192 0-10.371-.003-15.545-.006"/></svg>
